svg/lock_percent_outline.svg

<svg xmlns="http://www.w3.org/2000/svg" viewBox="0 0 24 24"><path d="M18 8h-1V6c0-2.8-2.2-5-5-5S7 3.2 7 6v2H6c-1.1 0-2 .9-2 2v10c0 1.1.9 2 2 2h12c1.1 0 2-.9 2-2V10c0-1.1-.9-2-2-2M9 6c0-1.7 1.3-3 3-3s3 1.3 3 3v2H9zm9 14H6V10h12zm-7-7.5c0 .8-.7 1.5-1.5 1.5S8 13.3 8 12.5 8.7 11 9.5 11s1.5.7 1.5 1.5m5 5c0 .8-.7 1.5-1.5 1.5s-1.5-.7-1.5-1.5.7-1.5 1.5-1.5 1.5.7 1.5 1.5m.2-5.3-7.1 7.1-1.4-1.4 7.1-7.1z"/></svg>

<svg xmlns="http://www.w3.org/2000/svg" id="mdi-lock-percent-outline" viewBox="0 0 24 24"><path d="M18 8H17V6C17 3.2 14.8 1 12 1S7 3.2 7 6V8H6C4.9 8 4 8.9 4 10V20C4 21.1 4.9 22 6 22H18C19.1 22 20 21.1 20 20V10C20 8.9 19.1 8 18 8M9 6C9 4.3 10.3 3 12 3S15 4.3 15 6V8H9V6M18 20H6V10H18V20M11 12.5C11 13.3 10.3 14 9.5 14S8 13.3 8 12.5 8.7 11 9.5 11 11 11.7 11 12.5M16 17.5C16 18.3 15.3 19 14.5 19S13 18.3 13 17.5 13.7 16 14.5 16 16 16.7 16 17.5M16.2 12.2L9.1 19.3L7.7 17.9L14.8 10.8L16.2 12.2Z" /></svg>
